Newaita-dark/actions/22/appointment-new.svg

<svg height="22" viewBox="0 0 22 22" width="22" xmlns="http://www.w3.org/2000/svg"><g fill="#e0e0e0"><path d="m10.914062 1.992188c-5.039062 0-9.09375 4.054687-9.09375 9.09375 0 5.039062 4.054688 9.097656 9.09375 9.097656 5.039063 0 9.097657-4.058594 9.097657-9.097656 0-5.039063-4.058594-9.09375-9.097657-9.09375zm0 1.816406c4.03125 0 7.277344 3.246094 7.277344 7.277344s-3.246094 7.277343-7.277344 7.277343-7.277343-3.246093-7.277343-7.277343 3.246093-7.277344 7.277343-7.277344zm0 0"/><path d="m10.460938 4.71875c-.253907 0-.457032.203125-.457032.457031v5.910157c0 .503906.40625.910156.910156.910156.503907 0 .910157-.40625.910157-.910156v-5.910157c0-.253906-.203125-.457031-.453125-.457031zm0 0"/><path d="m16.949219 9.003906c-.0625-.246094-.3125-.386718-.554688-.324218l-5.710937 1.53125c-.488282.128906-.773438.628906-.644532 1.113281.132813.488281.628907.773437 1.113282.644531l5.710937-1.53125c.246094-.066406.386719-.3125.324219-.558594zm0 0"/></g></svg>

<svg xmlns="http://www.w3.org/2000/svg" xmlns:xlink="http://www.w3.org/1999/xlink" width="22px" height="22px" viewBox="0 0 22 22" version="1.1">
<g id="surface1">
     <defs>
  <style id="current-color-scheme" type="text/css">
   .ColorScheme-Text { color:#eeeeee; } .ColorScheme-Highlight { color:#424242; }
  </style>
 </defs>
<path style="fill:currentColor" class="ColorScheme-Text" d="M 10.914062 1.992188 C 5.875 1.992188 1.820312 6.046875 1.820312 11.085938 C 1.820312 16.125 5.875 20.183594 10.914062 20.183594 C 15.953125 20.183594 20.011719 16.125 20.011719 11.085938 C 20.011719 6.046875 15.953125 1.992188 10.914062 1.992188 Z M 10.914062 3.808594 C 14.945312 3.808594 18.191406 7.054688 18.191406 11.085938 C 18.191406 15.117188 14.945312 18.363281 10.914062 18.363281 C 6.882812 18.363281 3.636719 15.117188 3.636719 11.085938 C 3.636719 7.054688 6.882812 3.808594 10.914062 3.808594 Z M 10.914062 3.808594 "/>
     <defs>
  <style id="current-color-scheme" type="text/css">
   .ColorScheme-Text { color:#eeeeee; } .ColorScheme-Highlight { color:#424242; }
  </style>
 </defs>
<path style="fill:currentColor" class="ColorScheme-Text" d="M 10.460938 4.71875 C 10.207031 4.71875 10.003906 4.921875 10.003906 5.175781 L 10.003906 11.085938 C 10.003906 11.589844 10.410156 11.996094 10.914062 11.996094 C 11.417969 11.996094 11.824219 11.589844 11.824219 11.085938 L 11.824219 5.175781 C 11.824219 4.921875 11.621094 4.71875 11.371094 4.71875 Z M 10.460938 4.71875 "/>
     <defs>
  <style id="current-color-scheme" type="text/css">
   .ColorScheme-Text { color:#eeeeee; } .ColorScheme-Highlight { color:#424242; }
  </style>
 </defs>
<path style="fill:currentColor" class="ColorScheme-Text" d="M 16.949219 9.003906 C 16.886719 8.757812 16.636719 8.617188 16.394531 8.679688 L 10.683594 10.210938 C 10.195312 10.339844 9.910156 10.839844 10.039062 11.324219 C 10.171875 11.8125 10.667969 12.097656 11.152344 11.96875 L 16.863281 10.4375 C 17.109375 10.371094 17.25 10.125 17.1875 9.878906 Z M 16.949219 9.003906 "/>
</g>
</svg>
